!!!COM:	Martini, Johannes
!!!CDT:	~1440///-~1497//
!!!OTL:	Audi benigne conditor
!!!AGN:	Motet
!!!SCT:	Mar2003
!!!SCA:	Mar2003
!!!voices:	3
**kern	**kern	**kern
*staff3	*staff2	*staff1
*Ivox	*Ivox	*Ivox
*I"Tenor	*I"Contra	*I"Superius
*I'T	*I'C	*I'S
*>[A,B]	*>[A,B]	*>[A,B]
*>A	*>A	*>A
*clefF4	*clefGv2	*clefG2
*k[]	*k[]	*k[]
*M2/1	*M2/1	*M2/1
*met(C)	*met(C)	*met(C)
=1-	=1-	=1-
!!section: Audi, benigne conditor
!!!OMD: Audi, benigne conditor
1D	1.A	1d
2F\	.	2d/
2G\	2B\	2e/
=2	=2	=2
0A	0c	1f
.	.	2f/
.	.	2e/
=3	=3	=3
2B\	2G/	2d/
2c\	1C	2.e/
2.A\	.	.
.	.	4d/
.	[2F/	4c/
4G\	.	4B/
=4	=4	=4
2A\	4F/]	2A/
.	4G/	.
2F\	1A	1d
1E	.	.
.	2G/	2c#i/
=5	=5	=5
1D	1A	1d
1d	1D	2r
.	.	2f/
=6	=6	=6
2c\	2A/	2e/
2A\	2F/	2f/
1B	1E	1g
=7	=7	=7
1A	2r	1f
.	2c\	.
2.G\	2.B\	2e/
.	.	[2d/
4F\	4A/	.
=8	=8	=8
2G\	2B\	2d/]
2E\	1G	1c
1D	.	.
.	2F/	2B/
=9	=9	=9
1C	1G	1c
1r	1D	2.d/
.	.	4e/
=10	=10	=10
1D	2r	1f
.	1d	.
2.F\	.	1f
.	4c\	.
4G\	4B\	.
=11	=11	=11
1A	1c	1e
1B	2d\	2.d/
.	2G/	.
.	.	4e/
=12	=12	=12
2A\	2F/	2f/
2G\	2E/	1g
1A	1D	.
.	.	2f#i/
=13	=13	=13
1G	2r	1g
.	2d\	.
2.E\	2.e\	1r
4F\	4d\	.
=14	=14	=14
1G	1B	2.e/
.	.	4f/
1E	1c	1g
=15	=15	=15
2D\	1d	2f/
2F\	.	2d/
2G\	2B\	2e/
[2A\	[2c\	[2f/
=16	=16	=16
2A\]	2c\]	2f/]
4G\	4B\	4e/
4F\	4A/	4d/
2E\	2G/	2c/
2D\	[2A/	[2d/
=17	=17	=17
1E	2A/]	2d/]
.	2G/	2c#i/
1Dl	1Al	1dl
=18||	=18||	=18||
*>B	*>B	*>B
!!section: Scrutator alme
!!!OMD: Scrutator alme
0r	1D	1d
.	[1A	1c
=19	=19	=19
1D	2A/]	2d/
.	2B\	2f/
1C	2.c\	1e
.	4B\	.
=20	=20	=20
2D\	1A	2f/
2F\	.	2d/
1E	1G	2.e/
.	.	4f/
=21	=21	=21
2F\	2A/	1d
2D\	2F/	.
2E\	2G/	1c
2F\	[2c\	.
=22	=22	=22
1D	2c\]	2d/
.	2B\	2f/
1C	2.c\	2e/
.	.	2g/
.	4A/	.
=23	=23	=23
2D\	2B\	2f/
2F\	1A	1d
1E	.	.
.	2G/	2c#i/
=24	=24	=24
0D	1A	1d
.	2B\	1r
.	2A/	.
=25	=25	=25
0r	1d	1f
.	2c\	1e
.	[2A/	.
=26	=26	=26
1F	4A/]	1f
.	4B\	.
.	4c\	.
.	4d\	.
1E	1e	1g
=27	=27	=27
1F	1A	2f/
.	.	2d/
2G\	2B\	2e/
[2A\	[2c\	[2f/
=28	=28	=28
2A\]	4c\]	4f/]
.	4B\	4e/
2G\	1B	1e
1F	.	.
.	2A/	2d/
=29	=29	=29
1E	1.B	1e
1r	.	1d
.	[2G/	.
=30	=30	=30
1r	2G/]	2e/
.	1A	2f/
1D	.	1d
.	2F/	.
=31	=31	=31
2E\	2G/	1c
2F\	1c	.
1D	.	1r
.	2B\	.
=32	=32	=32
1C	2c\	2r
.	2A/	2c/
2r	2B\	2d/
2C/	2c\	2e/
=33	=33	=33
2D\	1A	1f
2E\	.	.
[1F	1D	2r
.	.	2d/
=34	=34	=34
2F\]	1A	2e/
2D\	.	2f/
2E\	2G/	1g
2F\	2A/	.
=35	=35	=35
1G	2B\	1d
.	1G	.
1D	.	2r
.	2F/	2a/
=36	=36	=36
2G\	2E/	2b\
2B\	2G/	1g
1A	1D	.
.	.	2f#i/
=37	=37	=37
0G	1d	1g
.	1B	1r
=38	=38	=38
0r	2c\	1e
.	1A	.
.	.	1f
.	2d\	.
=39	=39	=39
1E	2e\	1e
.	2g\	.
1F	2f\	2d/
.	[2d\	[2a/
=40	=40	=40
1E	2d\]	2a/]
.	2c\	2g/
2D\	2d\	2f/
[2A\	4c\	4e/
.	4B\	4d/
=41	=41	=41
2A\]	2A/	2c/
2B\	2G/	2d/
2A\	2c\	2f/
[2G\	[2B\	[2e/
=42	=42	=42
2G\]	4B\]	4e/]
.	4A/	4d/
2F\	1A	1d
1E	.	.
.	2G/	2c#i/
=43	=43	=43
0Dl	0Al	0dl
==	==	==
*-	*-	*-
!!!RDF**kern: l=long note in original notation
!!!RDF**kern: i=editorial accidental
!!!ENC:	Chris Gage 07-31-2014
!!!END:	2014/10/05/
!!!EED:	Jesse Rodin
!!!EEV:	2014/10/15/
!!!ONB:	Translated from MusicXML and edited on 2014/10/15/ by Craig Sapp
!!muse2ps: C^@{COM}^i2I150v90,90,150Q16
